X: 16975
T: Haymaker, The
R: hornpipe
M: 4/4
K: Dmajor
F|:EA,CE DFAF|GABc dfaf|gbag f2 df|edcB BAGF|
EA,CE DFAF|GABc dfaf|gbag f2 df|1 eAce d3 F:|2 eAce d2 (3ABc||
|:defg gfdf|afbf afdf|gfeg fe^df|edcB BAGF|
EA,CE DFAF|GABc dfaf|gbag f2 df|1 eAce d2 (3ABc:|2 eAce d3 F||

